.svelte-kit/output/client/library/social-知乎.svg

<svg width="48" height="48" viewBox="0 0 48 48" fill="none" xmlns="http://www.w3.org/2000/svg">
<path fill-rule="evenodd" clip-rule="evenodd" d="M14.5 6.5C13 6.5 10.8 7.4 10 9C9.51 9.98001 8.55729 12.4482 7.62444 14.8649C7.03429 16.3938 6.45208 17.9021 6 19C6.10872 19 6.22531 19.0026 6.34865 19.0054C7.92699 19.041 10.6087 19.1014 12 14H15V23H9C7.34315 23 6 24.3431 6 26H14.5C14 31 12.5 35 6 41C14.5255 43.3682 17.2183 32.2763 17.9036 26H25V24C25 23.4477 24.5523 23 24 23H18.0848C18.1062 21.5957 18.0777 19.9283 18.0482 18.1954C18.0244 16.8051 18 15.3726 18 14H24.5V12.5C24.5 11.5 24 11 23.3125 11L13 11L14.5 6.5Z" fill="#1570E1"/>
<path d="M23.5 41L17 32L20 30C20 30 22 33 23.5 35C25 37 23.5 41 23.5 41Z" fill="#1570E1"/>
<path fill-rule="evenodd" clip-rule="evenodd" d="M39 14.5C39 14.2239 38.7761 14 38.5 14H30.5C30.2239 14 30 14.2239 30 14.5V33.5C30 33.7761 30.2239 34 30.5 34H32.1396C32.3548 34 32.5459 34.1377 32.614 34.3419L32.9271 35.2812C32.9656 35.3967 33.0974 35.4513 33.2063 35.3969L35.6833 34.1584C35.8916 34.0542 36.1212 34 36.3541 34H38.5C38.7761 34 39 33.7761 39 33.5V14.5ZM27.5 11C27.2239 11 27 11.2239 27 11.5V36.5C27 36.7761 27.2239 37 27.5 37H30.6615C30.8659 37 31.0498 37.1245 31.1257 37.3143L31.9193 39.2982C31.9627 39.4068 32.0898 39.4551 32.1944 39.4028L36.8944 37.0528C36.9639 37.0181 37.0404 37 37.118 37H41.5C41.7761 37 42 36.7761 42 36.5V11.5C42 11.2239 41.7761 11 41.5 11H27.5Z" fill="#1570E1"/>
</svg>

<svg width="48" height="48" fill="none" xmlns="http://www.w3.org/2000/svg"><path fill-rule="evenodd" clip-rule="evenodd" d="M14.5 6.5c-1.5 0-3.7.9-4.5 2.5-.49.98-1.443 3.448-2.376 5.865A224.928 224.928 0 0 1 6 19c.109 0 .225.003.349.005 1.578.036 4.26.096 5.651-5.005h3v9H9a3 3 0 0 0-3 3h8.5c-.5 5-2 9-8.5 15 8.525 2.368 11.218-8.724 11.904-15H25v-2a1 1 0 0 0-1-1h-5.915c.021-1.404-.007-3.072-.037-4.805C18.024 16.805 18 15.373 18 14h6.5v-1.5c0-1-.5-1.5-1.188-1.5H13l1.5-4.5Z" fill="#1570E1"/><path d="M23.5 41 17 32l3-2s2 3 3.5 5 0 6 0 6Z" fill="#1570E1"/><path fill-rule="evenodd" clip-rule="evenodd" d="M39 14.5a.5.5 0 0 0-.5-.5h-8a.5.5 0 0 0-.5.5v19a.5.5 0 0 0 .5.5h1.64a.5.5 0 0 1 .474.342l.313.94a.2.2 0 0 0 .28.115l2.476-1.239a1.5 1.5 0 0 1 .671-.158H38.5a.5.5 0 0 0 .5-.5v-19ZM27.5 11a.5.5 0 0 0-.5.5v25a.5.5 0 0 0 .5.5h3.162a.5.5 0 0 1 .464.314l.793 1.984a.2.2 0 0 0 .275.105l4.7-2.35a.5.5 0 0 1 .224-.053H41.5a.5.5 0 0 0 .5-.5v-25a.5.5 0 0 0-.5-.5h-14Z" fill="#1570E1"/></svg>
